pardus/48x48/status/avatar-default.svg

<svg xmlns="http://www.w3.org/2000/svg" width="48" height="48" version="1">
 <circle fill="#5294E2" cx="24" cy="24" r="20"/>
 <path fill="#fff" opacity=".2" d="m24 4a20 20 0 0 0 -20 20 20 20 0 0 0 0.0215 0.582 20 20 0 0 1 19.978 -19.582 20 20 0 0 1 19.979 19.418 20 20 0 0 0 0.021 -0.418 20 20 0 0 0 -20 -20z"/>
 <path opacity=".2" d="m43.979 24.418a20 20 0 0 1 -19.979 19.582 20 20 0 0 1 -19.978 -19.418 20 20 0 0 0 -0.022 0.418 20 20 0 0 0 20 20 20 20 0 0 0 20 -20 20 20 0 0 0 -0.021 -0.582z"/>
 <path style="opacity:0.2" d="m 24,12 c -2.762,0 -5,2.239 -5,5 0,2.761 2.238,5 5,5 2.762,0 5,-2.239 5,-5 0,-2.761 -2.238,-5 -5,-5 z m 0,13 c -9.999,0.006 -10,6.4 -10,6.4 V 34 c 0,0 1.846142,4 10,4 8.153858,0 10,-4 10,-4 v -2.6 c 0,0 0,-6.404 -9.998,-6.4 z"/>
 <path style="fill:#ffffff" d="m 24,11 c -2.762,0 -5,2.239 -5,5 0,2.761 2.238,5 5,5 2.762,0 5,-2.239 5,-5 0,-2.761 -2.238,-5 -5,-5 z m 0,13 c -9.999,0.006 -10,6.4 -10,6.4 V 33 c 0,0 1.846142,4 10,4 8.153858,0 10,-4 10,-4 v -2.6 c 0,0 0,-6.404 -9.998,-6.4 z"/>
</svg>

<?xml version="1.0" encoding="UTF-8" standalone="no"?>
<svg
   xmlns:dc="http://purl.org/dc/elements/1.1/"
   xmlns:cc="http://creativecommons.org/ns#"
   xmlns:rdf="http://www.w3.org/1999/02/22-rdf-syntax-ns#"
   xmlns:svg="http://www.w3.org/2000/svg"
   xmlns="http://www.w3.org/2000/svg"
   xmlns:sodipodi="http://sodipodi.sourceforge.net/DTD/sodipodi-0.dtd"
   xmlns:inkscape="http://www.inkscape.org/namespaces/inkscape"
   width="48"
   height="48"
   version="1"
   id="svg12"
   sodipodi:docname="avatar-default.svg"
   inkscape:version="0.92.1 r15371">
  <metadata
     id="metadata18">
    <rdf:RDF>
      <cc:Work
         rdf:about="">
        <dc:format>image/svg+xml</dc:format>
        <dc:type
           rdf:resource="http://purl.org/dc/dcmitype/StillImage" />
      </cc:Work>
    </rdf:RDF>
  </metadata>
  <defs
     id="defs16" />
  <sodipodi:namedview
     pagecolor="#ffffff"
     bordercolor="#666666"
     borderopacity="1"
     objecttolerance="10"
     gridtolerance="10"
     guidetolerance="10"
     inkscape:pageopacity="0"
     inkscape:pageshadow="2"
     inkscape:window-width="1716"
     inkscape:window-height="743"
     id="namedview14"
     showgrid="false"
     inkscape:zoom="6.9532167"
     inkscape:cx="37.348265"
     inkscape:cy="17.387402"
     inkscape:window-x="2015"
     inkscape:window-y="254"
     inkscape:window-maximized="0"
     inkscape:current-layer="svg12" />
  <g
     id="g4500"
     transform="matrix(1.1463415,0,0,1.1463415,-3.485366,-4.0853675)">
    <circle
       style="fill:#ffcb08;fill-opacity:1"
       id="circle2"
       r="20"
       cy="24"
       cx="24" />
    <path
       id="path4"
       d="M 24,4 A 20,20 0 0 0 4,24 20,20 0 0 0 4.0215,24.582 20,20 0 0 1 23.9995,5 20,20 0 0 1 43.9785,24.418 20,20 0 0 0 43.9995,24 a 20,20 0 0 0 -20,-20 z"
       inkscape:connector-curvature="0"
       style="opacity:0.2;fill:#ffffff" />
    <path
       id="path6"
       d="M 43.979,24.418 A 20,20 0 0 1 24,44 20,20 0 0 1 4.022,24.582 20,20 0 0 0 4,25 20,20 0 0 0 24,45 20,20 0 0 0 44,25 20,20 0 0 0 43.979,24.418 Z"
       inkscape:connector-curvature="0"
       style="opacity:0.2" />
    <path
       id="path8"
       d="m 24,12 c -2.762,0 -5,2.239 -5,5 0,2.761 2.238,5 5,5 2.762,0 5,-2.239 5,-5 0,-2.761 -2.238,-5 -5,-5 z m 0,13 c -9.999,0.006 -10,6.4 -10,6.4 V 34 c 0,0 1.846142,4 10,4 8.153858,0 10,-4 10,-4 v -2.6 c 0,0 0,-6.404 -9.998,-6.4 z"
       style="opacity:0.2"
       inkscape:connector-curvature="0" />
    <path
       id="path10"
       d="m 24,11 c -2.762,0 -5,2.239 -5,5 0,2.761 2.238,5 5,5 2.762,0 5,-2.239 5,-5 0,-2.761 -2.238,-5 -5,-5 z m 0,13 c -9.999,0.006 -10,6.4 -10,6.4 V 33 c 0,0 1.846142,4 10,4 8.153858,0 10,-4 10,-4 v -2.6 c 0,0 0,-6.404 -9.998,-6.4 z"
       style="fill:#2c2c2c;fill-opacity:1"
       inkscape:connector-curvature="0" />
  </g>
</svg>
